X:55
T:Gentle Mary Laid Her Child
%%stretchlast false
M:4/4
L:1/4
K:F clef=C1
"^I"[F,A,CF] [F,A,CF] "^vi"[D,A,DF] "^V¹"[E,G,CG] | "^I"[F,A,CF] "^IV"[B,,B,DF] "^V"[C,E,G,C]2 | "^IV"[B,,F,B,D] "^I¹"[A,,F,C] "^IV"[B,,F,B,D] "^vii°¹"[G,,G,B,E] | "^I"[F,,A,CF]2 [F,,A,CF]2 | [F,A,CF] [F,A,CF] "^vi"[D,A,DF] "^V¹"[E,G,CG] | "^I"[F,A,CF] "^IV"[B,,B,DF] "^V"[C,E,G,C]2 | "^IV"[B,,F,B,D] "^I¹"[A,,F,C] "^IV"[B,,F,B,D] "^vii°¹"[G,,G,B,E] | "^I"[F,,A,CF]2 [F,,A,CF]2 | "^I¹"[A,,CFc] "^IV"[B,,DFB] "^I²"[C,CFA] "^V"[C,CEG] | "^I"[F,CFA] "^V"[C,CEG] "^vi"[D,A,DF]2 | "^IV"[B,,F,B,D] "^I¹"[A,,F,C] "^IV"[B,,F,B,D] "^vii°¹"[G,,G,B,E] | "^I"[F,,A,CF]2 [F,,A,CF]2 | "^I¹"[A,,F,C] [A,,F,C] "^IV"[B,,F,B,D] "^vii°¹"[G,,G,B,E] | "^vi"[D,F,A,F] [D,F,A,F] "^V"[C,E,CG]2 | "^I¹"[A,,F,Cc] "^IV"[B,,DFB] "^I²"[C,CFA] "^V"[C,CEG] | "^vi"[D,A,F]2 "^IV"[B,,B,DB]2 | "^I"[F,A,CF]4 |]
